X:1
T:Title
%%score { 1 | 2 }
L:1/8
Q:1/4=100
M:4/4
K:F
V:1 treble nm="Grand Piano"
V:2 bass 
V:1
 A2 A2 c>d c>[DGB] | [CFA]2 [B,EG]2 [A,CF]4 | [CEG]2 [CEG]2 [CFA]>[CFA] [CFA]>[CFA] | %3
w: W.~A.~Post * * * * *|||
 [DF=B]2 [DFG]2 [CEc]4 | d2 d2 c>c A>A | B2 [CGc]2 [CFA]4 | %6
w: |||
 [DFA]>[DFA] [_EFc]>[EFc] [DFB]2 [B,DG]2 | F2 E2 F4 | c>c [G^c]>[Gc] [^Fd]2 [DFA]2 | %9
w: |||
 [DAc]2 [DGB]2 [DAc]2 [DGB]2 | [CGB]>[CFB] [CEB]>[CFB] [CGc]2 [CEG]2 | [CGB]2 A2 A4 | c>c f>e d4 | %13
w: ||||
 [^Fd]>[FA] [Fd]>[Ac] [GB]2 [G=B]2 | [Gc]2 [Ec]>[Ec] [Fc]2 [FA]2 | [FG]2 [EG]2 [CF]4 |] %16
w: |||
V:2
 [F,CF]2 [F,CF]2 [F,A,F]>[F,B,F] [F,A,F]>B,, | C,2 C,2 F,4 | C,2 C,2 F,>F, F,>F, | D,2 G,2 C,4 | %4
 [B,CE]2 [B,CE]2 [A,CF]>[A,CF] [F,CF]>[K:bass][F,CF] | [G,CE]2 E,2 F,4 | D,>D, A,,>A,, B,,2 B,,2 | %7
 [C,A,C]2 [C,G,C]2 [F,A,C]4 | [F,A,F]>[F,A,F] [E,A,]>[E,A,] [D,A,]2 D,2 | G,2 G,2 G,2 G,2 | %10
 E,>D, C,>D, E,2 C,2 | F,2[K:treble] [F,CF]2 [F,CF]4 | [F,A,F]>[F,A,F] [A,CF]>[A,CF] [B,F]4 | %13
 [D,A,]>[D,D] [D,A,]>[D,D] [G,D]2 [F,D]2 | [E,C]2 [C,B,]>[C,B,] [F,A,]2 [F,C]2 | %15
 [C,B,]2 [C,B,]2 [F,A,]4 |] %16

